X:1
T:Laudate Dominum (Bedell), 87.87 D
T:Laudate Dominum (Bedell), 87.87 D
T:Edwin Augustus Bedell, 1899
T:Public Domain Courtesy of the Cyber Hymnal™
C:Edwin Augustus Bedell, 1899
Z:Public Domain
Z:Courtesy of the Cyber Hymnal™
%%score ( 1 2 ) ( 3 4 )
L:1/8
Q:1/4=110
M:4/4
K:Ab
V:1 treble 
V:2 treble 
V:3 bass 
V:4 bass 
V:1
 [Ac]3 [Ac] [Ad]2 [Ac]2 | [GB]2 [E=B]2 [Ec]2 E2 | E2 [EF]2 [EG]2 [EA]2 | [E=A]3 [EB] [EB]4 | %4
 [Ec]3 [Ac] [Ad]2 [Ac]2 | [GB]2 [E=B]2 [Ec]2 [EA]2 | [_Gc]3 [Fc] [FA]2 [Ge]2 | [EG]2 [=DF]2 E4 | %8
 [Gc]2 [GB]2 [GB]3 [Gc] | [GB]2 A2 [Af]2 [Ae]2 | [Gc]3 [GB] [GB]2 [Gc]2 | [GB]2 A2 ([=Bf]2 [ce]2) | %12
 [_Gc]3 [Gc] [Ge]2 [GA]2 | [Ff]2 e2 [Gd]2 [Ac]2 | [_Ge]2 [Fd]2 [Ac]2 A2 | B3 A A4 |] %16
V:2
 x8 | x6 E2 | E2 x6 | x8 | x8 | x8 | x8 | x4 E4 | x8 | x2 A2 x4 | x8 | x2 A2 x4 | x8 | x2 (AE) x4 | %14
 x6 A2 | (A2 G)A A4 |] %16
V:3
 [A,E]3 [A,E] [A,F]2 [A,E]2 | [E,D]2 [E,D]2 [A,C]2 [A,C]2 | [A,C]2 [A,C]2 [A,C]2 [A,C]2 | %3
 [G,D]3 [G,D] [G,D]4 | [A,C]3 [A,E] [A,F]2 [A,E]2 | [E,D]2 [E,D]2 [A,C]2 [A,C]2 | %6
 [=A,E]3 [A,E] [B,E]2 B,2 | [B,,B,]2 [B,,A,]2 [E,G,]4 | [E,E]2 [E,D]2 [E,D]3 [E,E] | %9
 [A,D]2 [A,C]2 [A,D]2 [A,C]2 | [E,E]3 [E,D] [E,D]2 [E,E]2 | [A,D]2 [A,C]2 ([A,=D]2 [A,E]2) | %12
 [A,E]3 [A,E] [A,C]2 [CE]2 | D2 [CE]2 [B,E]2 [A,E]2 | [A,C]2 [B,D]2 [E,E]2 [E,C]2 | %15
 [E,D]3 [A,C] [A,C]4 |] %16
V:4
 x8 | x8 | x8 | x8 | x8 | x8 | x6 B,2 | x8 | x8 | x8 | x8 | x8 | x8 | D2 x6 | x8 | x8 |] %16

